Papirus/64x64/apps/mat.svg

<?xml version="1.0" encoding="UTF-8" standalone="no"?>
<svg
   id="_图层_1"
   version="1.1"
   viewBox="0 0 64 64" width="64" height="64"
   sodipodi:docname="mat.svg"
   xml:space="preserve"
   inkscape:version="1.4 (e7c3feb100, 2024-10-09)"
   xmlns:inkscape="http://www.inkscape.org/namespaces/inkscape"
   xmlns:sodipodi="http://sodipodi.sourceforge.net/DTD/sodipodi-0.dtd"
   xmlns="http://www.w3.org/2000/svg"
   xmlns:svg="http://www.w3.org/2000/svg"><sodipodi:namedview
     id="namedview26"
     pagecolor="#505050"
     bordercolor="#eeeeee"
     borderopacity="1"
     inkscape:showpageshadow="0"
     inkscape:pageopacity="0"
     inkscape:pagecheckerboard="0"
     inkscape:deskcolor="#505050"
     inkscape:zoom="10.6875"
     inkscape:cx="32"
     inkscape:cy="32"
     inkscape:window-width="1920"
     inkscape:window-height="939"
     inkscape:window-x="0"
     inkscape:window-y="34"
     inkscape:window-maximized="1"
     inkscape:current-layer="_图层_1" /><!-- Generator: Adobe Illustrator 29.0.1, SVG Export Plug-In . SVG Version: 2.1.0 Build 192)  --><defs
     id="defs6"><style
       id="style1">
      .st0 {
        fill-opacity: .5;
      }

      .st0, .st1, .st2, .st3, .st4, .st5, .st6, .st7 {
        fill: #fff;
      }

      .st8 {
        fill: #133c9a;
      }

      .st2, .st9 {
        display: none;
      }

      .st3 {
        fill-opacity: .2;
      }

      .st4 {
        fill-opacity: .9;
      }

      .st10 {
        fill: #3370ff;
      }

      .st11 {
        fill: url(#_未命名的渐变_3);
      }

      .st12 {
        fill: url(#_未命名的渐变);
      }

      .st5 {
        fill-opacity: .3;
      }

      .st6 {
        fill-opacity: 0;
      }

      .st7 {
        fill-opacity: .7;
      }

      .st13 {
        fill: #00d6b9;
      }

      .st14 {
        fill: url(#_未命名的渐变_2);
      }
    </style><radialGradient
       id="_未命名的渐变"
       data-name="未命名的渐变"
       cx="123.9"
       cy="-40.2"
       fx="123.9"
       fy="-40.2"
       r="59.4"
       gradientTransform="translate(-26.8 25.5) scale(.6 -.7)"
       gradientUnits="userSpaceOnUse"><stop
         offset="0"
         stop-color="#db202e"
         id="stop1" /><stop
         offset="1"
         stop-color="#e01b24"
         id="stop2" /></radialGradient><radialGradient
       id="_未命名的渐变_2"
       data-name="未命名的渐变 2"
       cx="67.6"
       cy="26.8"
       fx="67.6"
       fy="26.8"
       r="105.2"
       gradientTransform="translate(-26.6 25.3) scale(.6 -.7)"
       gradientUnits="userSpaceOnUse"><stop
         offset="0"
         stop-color="#ffb648"
         id="stop3" /><stop
         offset="1"
         stop-color="#ff7800"
         stop-opacity="0"
         id="stop4" /></radialGradient><radialGradient
       id="_未命名的渐变_3"
       data-name="未命名的渐变 3"
       cx="61.7"
       cy="18.6"
       fx="61.7"
       fy="18.6"
       r="68"
       gradientTransform="translate(-26.8 25.8) scale(.6 -.7)"
       gradientUnits="userSpaceOnUse"><stop
         offset="0"
         stop-color="#c64600"
         id="stop5" /><stop
         offset="1"
         stop-color="#a51d2d"
         id="stop6" /></radialGradient></defs><path
     class="st1"
     d="M47.5,64.1H13.8c-7.6,0-13.8-6.3-13.8-13.8V13.7C0,6.2,6.2,0,13.7,0h36.6c7.5,0,13.7,6.2,13.7,13.7v36.6c0,7.5-6.2,13.7-13.7,13.7h-2.9.1Z"
     id="path6"
     style="fill:#e4e4e4;fill-opacity:1" /><g
     id="g31"
     transform="matrix(0.97660782,0,0,0.91956086,1.2160805,4.4062425)"><rect
       style="opacity:0.2"
       width="12"
       height="41.999001"
       x="26"
       y="19"
       rx="4.5"
       ry="4.1999998"
       id="rect1" /><rect
       style="fill:#b83229"
       width="12"
       height="41.999001"
       x="26"
       y="18"
       rx="4.5"
       ry="4.1999998"
       id="rect2" /><path
       style="opacity:0.2"
       d="M 28.711727,32.975766 C 22.100579,32.850112 19.417208,32.739164 17.776341,32.523621 16.573033,32.36555 15.982093,32.211447 15.315606,31.881924 14.214822,31.33768 13.530225,30.578766 13.036172,29.355038 c -0.451706,-1.118799 -0.63563,-2.007409 -0.804423,-3.886557 -0.190485,-2.120627 -0.205373,-2.504536 -0.225154,-5.808636 -0.0233,-3.88563 0.0236,-5.158918 0.284541,-7.737991 0.136824,-1.352079 0.336269,-2.250651 0.711006,-3.2035274 0.341279,-0.8677663 0.652858,-1.3466754 1.219509,-1.87443 0.712177,-0.6632894 1.494321,-1.0665022 2.481708,-1.2793577 1.47379,-0.3177146 8.135099,-0.5626769 15.300738,-0.5626769 7.16564,0 13.82695,0.2449623 15.300739,0.5626769 1.065837,0.2297698 1.848089,0.654176 2.611324,1.4167537 0.59736,0.5968447 0.905032,1.1391751 1.271167,2.2407604 0.377268,1.135055 0.521955,2.139571 0.736326,5.112156 0.101797,1.411638 0.101797,7.909872 0,9.320813 -0.119116,1.650581 -0.265271,3.120468 -0.3626,3.646421 -0.25021,1.352201 -0.741633,2.618232 -1.295685,3.338057 -0.380127,0.493853 -1.130522,1.082292 -1.758011,1.378576 -0.635389,0.300014 -1.240757,0.448751 -2.216677,0.544658 -3.024107,0.297178 -12.25876,0.514162 -17.578913,0.413032 z"
       id="path2-6" /><path
       style="fill:#d54c41"
       d="m 28.711727,31.975832 c -6.611148,-0.125653 -9.294519,-0.236602 -10.935386,-0.452145 -1.203308,-0.15807 -1.794248,-0.312173 -2.460735,-0.641696 -1.100784,-0.544244 -1.785381,-1.303159 -2.279434,-2.526886 -0.451706,-1.118799 -0.63563,-2.00741 -0.804423,-3.886557 -0.190485,-2.120628 -0.205373,-2.504537 -0.225154,-5.808636 -0.0233,-3.88563 0.0236,-5.158919 0.284541,-7.737991 0.136824,-1.3520796 0.336269,-2.2506512 0.711006,-3.2035279 0.341279,-0.8677663 0.652858,-1.3466754 1.219509,-1.87443 0.712177,-0.6632894 1.494321,-1.0665022 2.481708,-1.2793577 1.47379,-0.3177146 8.135099,-0.5626769 15.300738,-0.5626769 7.16564,0 13.82695,0.2449623 15.300739,0.5626769 1.065837,0.2297698 1.848089,0.654176 2.611324,1.4167537 0.59736,0.5968447 0.905032,1.1391751 1.271167,2.2407601 0.377268,1.1350552 0.521955,2.1395718 0.736326,5.1121568 0.101797,1.411637 0.101797,7.909871 0,9.320812 -0.119116,1.650581 -0.265271,3.120469 -0.3626,3.646421 -0.25021,1.352201 -0.741633,2.618233 -1.295685,3.338057 -0.380127,0.493854 -1.130522,1.082292 -1.758011,1.378576 -0.635389,0.300014 -1.240757,0.448751 -2.216677,0.544658 -3.024107,0.297178 -12.25876,0.514163 -17.578913,0.413032 z"
       id="path3-2" /><path
       style="opacity:0.2"
       d="M 16.441406,11.952167 A 1.50015,1.50015 0 0 0 15,13.452167 v 10 a 1.50015,1.50015 0 1 0 3,0 v -6.5 l 1.666016,1.585938 a 1.50015,1.50015 0 0 0 2.121093,-0.05274 L 23,17.208026 v 6.244141 a 1.50015,1.50015 0 1 0 3,0 v -10 a 1.50015,1.50015 0 0 0 -1.544922,-1.5 1.50015,1.50015 0 0 0 -1.042969,0.466797 l -2.765625,2.912109 -3.111328,-2.964844 a 1.50015,1.50015 0 0 0 -1.09375,-0.414062 z m 23.058594,0 a 1.500135,1.500135 0 1 0 0,3 H 42 v 8.5 a 1.50015,1.50015 0 1 0 3,0 v -8.5 h 2.599609 a 1.500135,1.500135 0 1 0 0,-3 z m -6.578125,0.002 a 1.50015,1.50015 0 0 0 -1.289063,0.882813 l -4.5,10 a 1.50015,1.50015 0 1 0 2.734376,1.230468 l 0.539062,-1.197265 v 0.08203 h 5.224609 l 0.501953,1.115234 a 1.50015,1.50015 0 1 0 2.734376,-1.230468 l -4.5,-10 A 1.50015,1.50015 0 0 0 32.921875,11.95412 Z M 33,17.106464 l 1.28125,2.845703 h -2.5625 z"
       id="path4" /><path
       style="fill:none;stroke:#fefefe;stroke-width:3;stroke-linecap:round;stroke-linejoin:round"
       d="m 16.50015,22.5 v -10 l 4.19986,4 3.799774,-4 v 10"
       id="path5" /><path
       style="fill:none;stroke:#fefefe;stroke-width:3;stroke-linecap:round;stroke-linejoin:round"
       d="m 28.5,22.5 4.5,-10 4.5,10"
       id="path6-9" /><path
       style="fill:none;stroke:#fefefe;stroke-width:3;stroke-linecap:round;stroke-linejoin:round"
       d="m 43.500498,22.5 v -9.498371 0"
       id="path7" /><path
       style="fill:none;stroke:#fefefe;stroke-width:2.99997;stroke-linecap:round;stroke-linejoin:round"
       d="m 39.500348,12.499865 h 8.1"
       id="path8" /><path
       style="fill:none;stroke:#fefefe;stroke-width:3"
       d="m 30.405782,20.5 h 5.599814"
       id="path9" /><path
       style="opacity:0.2;fill:#ffffff"
       d="m 32.003906,4.0019531 c -7.165639,0 -13.825037,0.2447854 -15.298828,0.5625 -0.987387,0.2128555 -1.772199,0.6179607 -2.484375,1.28125 -0.566651,0.5277546 -0.877471,1.0033274 -1.21875,1.8710938 -0.374738,0.9528767 -0.574113,1.8549523 -0.710937,3.2070311 -0.260941,2.579073 -0.308456,3.852652 -0.285157,7.738281 9.8e-4,0.160008 0.0036,0.23421 0.0059,0.324219 -0.01058,-3.232602 0.03858,-4.683329 0.279297,-7.0625 0.136824,-1.352079 0.336199,-2.2541544 0.710937,-3.2070311 0.341279,-0.8677664 0.652099,-1.3433392 1.21875,-1.8710938 0.712176,-0.6632893 1.496988,-1.0683945 2.484375,-1.28125 1.473791,-0.3177146 8.133189,-0.5625 15.298828,-0.5625 7.16564,0 13.826992,0.2447854 15.300782,0.5625 1.065837,0.2297698 1.850046,0.6553912 2.613281,1.4179688 0.59736,0.5968448 0.903396,1.1366963 1.269531,2.2382812 0.377268,1.1350549 0.520004,2.1406959 0.734375,5.1132809 0.05202,0.721408 0.06399,2.626073 0.06055,4.587891 1.74e-4,0.02982 0.0018,0.0425 0.002,0.07227 0.0132,-2.330522 -6.78e-4,-4.802882 -0.0625,-5.660157 C 51.707504,10.361399 51.564768,9.3557584 51.1875,8.2207031 50.821365,7.1191182 50.515329,6.5792667 49.917969,5.9824219 49.154734,5.2198443 48.370525,4.7942229 47.304688,4.5644531 c -1.47379,-0.3177146 -8.135142,-0.5625 -15.300782,-0.5625 z"
       id="path10" /></g></svg>

<svg xmlns="http://www.w3.org/2000/svg" width="64" height="64" version="1">
 <rect style="opacity:0.2" width="12" height="41.999" x="26" y="19" rx="4.5" ry="4.2"/>
 <rect style="fill:#b83229" width="12" height="41.999" x="26" y="18" rx="4.5" ry="4.2"/>
 <path style="opacity:0.2" d="M 28.711727,32.975766 C 22.100579,32.850112 19.417208,32.739164 17.776341,32.523621 16.573033,32.36555 15.982093,32.211447 15.315606,31.881924 14.214822,31.33768 13.530225,30.578766 13.036172,29.355038 c -0.451706,-1.118799 -0.63563,-2.007409 -0.804423,-3.886557 -0.190485,-2.120627 -0.205373,-2.504536 -0.225154,-5.808636 -0.0233,-3.88563 0.0236,-5.158918 0.284541,-7.737991 0.136824,-1.352079 0.336269,-2.250651 0.711006,-3.2035274 0.341279,-0.8677663 0.652858,-1.3466754 1.219509,-1.87443 0.712177,-0.6632894 1.494321,-1.0665022 2.481708,-1.2793577 1.47379,-0.3177146 8.135099,-0.5626769 15.300738,-0.5626769 7.16564,0 13.82695,0.2449623 15.300739,0.5626769 1.065837,0.2297698 1.848089,0.654176 2.611324,1.4167537 0.59736,0.5968447 0.905032,1.1391751 1.271167,2.2407604 0.377268,1.135055 0.521955,2.139571 0.736326,5.112156 0.101797,1.411638 0.101797,7.909872 0,9.320813 -0.119116,1.650581 -0.265271,3.120468 -0.3626,3.646421 -0.25021,1.352201 -0.741633,2.618232 -1.295685,3.338057 -0.380127,0.493853 -1.130522,1.082292 -1.758011,1.378576 -0.635389,0.300014 -1.240757,0.448751 -2.216677,0.544658 -3.024107,0.297178 -12.25876,0.514162 -17.578913,0.413032 z"/>
 <path style="fill:#d54c41" d="m 28.711727,31.975832 c -6.611148,-0.125653 -9.294519,-0.236602 -10.935386,-0.452145 -1.203308,-0.15807 -1.794248,-0.312173 -2.460735,-0.641696 -1.100784,-0.544244 -1.785381,-1.303159 -2.279434,-2.526886 -0.451706,-1.118799 -0.63563,-2.00741 -0.804423,-3.886557 -0.190485,-2.120628 -0.205373,-2.504537 -0.225154,-5.808636 -0.0233,-3.88563 0.0236,-5.158919 0.284541,-7.737991 0.136824,-1.3520796 0.336269,-2.2506512 0.711006,-3.2035279 0.341279,-0.8677663 0.652858,-1.3466754 1.219509,-1.87443 0.712177,-0.6632894 1.494321,-1.0665022 2.481708,-1.2793577 1.47379,-0.3177146 8.135099,-0.5626769 15.300738,-0.5626769 7.16564,0 13.82695,0.2449623 15.300739,0.5626769 1.065837,0.2297698 1.848089,0.654176 2.611324,1.4167537 0.59736,0.5968447 0.905032,1.1391751 1.271167,2.2407601 0.377268,1.1350552 0.521955,2.1395718 0.736326,5.1121568 0.101797,1.411637 0.101797,7.909871 0,9.320812 -0.119116,1.650581 -0.265271,3.120469 -0.3626,3.646421 -0.25021,1.352201 -0.741633,2.618233 -1.295685,3.338057 -0.380127,0.493854 -1.130522,1.082292 -1.758011,1.378576 -0.635389,0.300014 -1.240757,0.448751 -2.216677,0.544658 -3.024107,0.297178 -12.25876,0.514163 -17.578913,0.413032 z"/>
 <path style="opacity:0.2" d="M 16.441406,11.952167 A 1.50015,1.50015 0 0 0 15,13.452167 v 10 a 1.50015,1.50015 0 1 0 3,0 v -6.5 l 1.666016,1.585938 a 1.50015,1.50015 0 0 0 2.121093,-0.05274 L 23,17.208026 v 6.244141 a 1.50015,1.50015 0 1 0 3,0 v -10 a 1.50015,1.50015 0 0 0 -1.544922,-1.5 1.50015,1.50015 0 0 0 -1.042969,0.466797 l -2.765625,2.912109 -3.111328,-2.964844 a 1.50015,1.50015 0 0 0 -1.09375,-0.414062 z m 23.058594,0 a 1.500135,1.500135 0 1 0 0,3 H 42 v 8.5 a 1.50015,1.50015 0 1 0 3,0 v -8.5 h 2.599609 a 1.500135,1.500135 0 1 0 0,-3 z m -6.578125,0.002 a 1.50015,1.50015 0 0 0 -1.289063,0.882813 l -4.5,10 a 1.50015,1.50015 0 1 0 2.734376,1.230468 l 0.539062,-1.197265 v 0.08203 h 5.224609 l 0.501953,1.115234 a 1.50015,1.50015 0 1 0 2.734376,-1.230468 l -4.5,-10 A 1.50015,1.50015 0 0 0 32.921875,11.95412 Z M 33,17.106464 l 1.28125,2.845703 h -2.5625 z"/>
 <path style="fill:none;stroke:#fefefe;stroke-width:3;stroke-linecap:round;stroke-linejoin:round" d="m 16.50015,22.5 v -10 l 4.19986,4 3.799774,-4 v 10"/>
 <path style="fill:none;stroke:#fefefe;stroke-width:3;stroke-linecap:round;stroke-linejoin:round" d="m 28.5,22.5 4.5,-10 4.5,10"/>
 <path style="fill:none;stroke:#fefefe;stroke-width:3;stroke-linecap:round;stroke-linejoin:round" d="m 43.500498,22.5 v -9.498371 0"/>
 <path style="fill:none;stroke:#fefefe;stroke-width:2.99996996;stroke-linecap:round;stroke-linejoin:round" d="m 39.500348,12.499865 h 8.1"/>
 <path style="fill:none;stroke:#fefefe;stroke-width:3" d="m 30.405782,20.5 h 5.599814"/>
 <path style="opacity:0.2;fill:#ffffff" d="M 32.003906 4.0019531 C 24.838267 4.0019531 18.178869 4.2467385 16.705078 4.5644531 C 15.717691 4.7773086 14.932879 5.1824138 14.220703 5.8457031 C 13.654052 6.3734577 13.343232 6.8490305 13.001953 7.7167969 C 12.627215 8.6696736 12.42784 9.5717492 12.291016 10.923828 C 12.030075 13.502901 11.98256 14.77648 12.005859 18.662109 C 12.006839 18.822117 12.009484 18.896319 12.011719 18.986328 C 12.001141 15.753726 12.0503 14.302999 12.291016 11.923828 C 12.42784 10.571749 12.627215 9.6696736 13.001953 8.7167969 C 13.343232 7.8490305 13.654052 7.3734577 14.220703 6.8457031 C 14.932879 6.1824138 15.717691 5.7773086 16.705078 5.5644531 C 18.178869 5.2467385 24.838267 5.0019531 32.003906 5.0019531 C 39.169546 5.0019531 45.830898 5.2467385 47.304688 5.5644531 C 48.370525 5.7942229 49.154734 6.2198443 49.917969 6.9824219 C 50.515329 7.5792667 50.821365 8.1191182 51.1875 9.2207031 C 51.564768 10.355758 51.707504 11.361399 51.921875 14.333984 C 51.973899 15.055392 51.985866 16.960057 51.982422 18.921875 C 51.982596 18.951699 51.984206 18.964379 51.984375 18.994141 C 51.997575 16.663619 51.983697 14.191259 51.921875 13.333984 C 51.707504 10.361399 51.564768 9.3557584 51.1875 8.2207031 C 50.821365 7.1191182 50.515329 6.5792667 49.917969 5.9824219 C 49.154734 5.2198443 48.370525 4.7942229 47.304688 4.5644531 C 45.830898 4.2467385 39.169546 4.0019531 32.003906 4.0019531 z"/>
</svg>
